X:1
T:Beauty for Ashes
T:J. G. Crabbe, 1889
T:Beauty for Ashes
T:Public Domain
T:Public Domain
T:Public Domain
C:J. G. Crabbe, 1889
Z:Public Domain
%%score ( 1 2 ) ( 3 4 )
L:1/8
M:4/4
K:Ab
V:1 treble 
V:2 treble 
V:3 bass 
V:4 bass 
V:1
 [CE]2 | [Ec]3 [CE] [DF]>[CE] [=B,=D]>[CE] | [DG]4 [DF]2 [DE]2 | [Ed] [Ed]2 [Ed] [Ec]2 [EB]2 | %4
w: 1.~I|sing the love of God, my|Fa- ther, Whose|Spir- it a- bides with-|
w: 2.~I|sing the love of God, my|Sav- ior, Who|suf- fered up- on the|
w: 3.~I|sing the beau- ty of the|Gos- pel That|scat- ters, not thorns, but|
 [Ec]6 [CE]2 | [Ec]3 [CE] [DF]>[CE] [=B,=D]>[CE] | [DG]4 [DF]2 [DE]2 | %7
w: in, Who|chang- es all my grief to|glad- ness, And|
w: tree, That,|in the se- cret of His|pre- sence, My|
w: flowers, That|bids me scat- ter smiles and|sun- beams Wher-|
 [Gd] [Gd]2 [Gd] [Ac]2 [EB]2 | [EA]6 [Ec]2 | [=Ec]3 [EG] [FA]>[FA] [FB]>[FB] | [=Ec]4 [Ec]2 [Ec]2 | %11
w: par- dons me all my|sin. Though|clouds may low- er, dark and|drear- y, Yet|
w: bond- age might free- dom|be. He|comes “to bind the brok- en-|heart- ed”; He|
w: ev- er are lone- ly|hours. The|“gar- ment of His praise” it|of- fers For|
 [Fc]3 [Ac] [A=d]>[Ad] [Ad]>[Ad] | [Ge]6 [DE]2 | [Ec]3 [CE] [DF]>[CE] [=B,=D]>[CE] | %14
w: He has prom- ised to be|near; He|gives me sun- shine for my|
w: comes the faint- ing soul to|cheer; He|gives me “oil of joy” for|
w: “heav- i- ness of spir- it”|drear; It|gives me sun- shine for my|
 [DG]4 [DF]2 [DE]2 | [Gd] [Gd]2 [Gd] [Ac]2 [EB]2 | [EA]4- [EA]3/2 ||"^Refrain" c<=B c/ | %18
w: sha- dow, And|“beau- ty for ash- es”|here. *||
w: mourn- ing, And|“beau- ty for ash- es”|here. *|He gives me|
w: sha- dow, And|“beau- ty for ash- es”|here. *||
 (z3/2 G/ G>G [Ge]>)[Fd] [Ec]>[DB] | [CA]4 [CE]>A G>A | (z3/2 D/ D>D [DB]>)f e>d | %21
w: |||
w: * * * * joy in place|* sor- row; He gives|* * * * me love that|
w: |||
 z3/2 E/ E>E E2 [CE]2 |] %22
w: |
w: * * * * out|
w: |
V:2
 x2 | x8 | x8 | x8 | x8 | x8 | x8 | x8 | x8 | x8 | x8 | x8 | x8 | x8 | x8 | x8 | x11/2 || x5/2 | %18
w: ||||||||||||||||||
w: ||||||||||||||||||
 e4- x4 | x8 | B6 x2 | c6 x2 |] %22
w: ||||
w: of||casts|fear;|
V:3
 [A,,A,]2 | [A,,A,]3 [A,,A,] [A,,A,]>[A,,A,] [A,,A,]>[A,,A,] | [B,,E,]4 [B,,G,]2 [E,G,]2 | %3
w: ~|~ ~ ~ ~ ~ ~|~ ~ ~|
 [B,,G,] [B,,G,]2 [B,,G,] [E,A,]2 [E,G,]2 | [A,,A,]6 [A,,A,]2 | %5
w: ~ ~ ~ ~ ~|~ ~|
 [A,,A,]3 [A,,A,] [A,,A,]>[A,,A,] [A,,A,]>[A,,A,] | [E,B,]4 [E,A,]2 [E,G,]2 | %7
w: ~ ~ ~ ~ ~ ~|~ ~ ~|
 [E,B,] [E,B,]2 [E,B,] [E,E]2 [E,D]2 | [A,,C]6 [A,,A,]2 | %9
w: ~ ~ ~ ~ ~|~ ~|
 [C,G,]3 [C,C] [F,C]>[F,A,] [D,A,]>[D,F,] | [C,G,]4 [C,G,]2 [C,G,]2 | %11
w: ~ ~ ~ ~ ~ ~|~ ~ ~|
 [F,A,]3 [F,C] [B,,B,]>[B,,B,] [B,,B,]>[B,,B,] | [E,B,]6 [E,G,]2 | %13
w: ~ ~ ~ ~ ~ ~|~ ~|
 [A,,A,]3 [A,,A,] [A,,A,]>[A,,A,] [A,,A,]>[A,,A,] | [E,B,]4 [E,A,]2 [E,G,]2 | %15
w: D.S.~gives me sun- shine for my|sha- dow, And|
 [E,B,] [E,B,]2 [E,B,] [E,E]2 [E,D]2 | [A,,C]4- [A,,C]3/2 || z/ z2 | %18
w: “beau- ty for ash- es”|here. *||
 z3/2 [E,B,]/ [E,B,]>[E,B,] [E,B,]3/2 z/ z2 | z3/2 [A,,A,]/ [A,,A,]>[A,,A,] [A,,A,]3/2 z/ z2 | %20
w: ||
 z3/2 [E,G,]/ [E,G,]>[E,G,] [E,G,]>D C>B, | z3/2 A,,/ C,>E, A,2 [A,,A,]2 |] %22
w: ||
V:4
 x2 | x8 | x8 | x8 | x8 | x8 | x8 | x8 | x8 | x8 | x8 | x8 | x8 | x8 | x8 | x8 | x11/2 || x5/2 | %18
 x8 | x8 | x8 | A,6 x2 |] %22

